X:1
T:Pianoflage
T:Pianoflage
T:Roy Bargy
C:Roy Bargy
%%score { 1 | ( 2 3 ) }
L:1/8
Q:1/4=160
M:2/2
K:C
V:1 treble nm="Piano" snm="Pno."
V:2 bass 
V:3 bass 
V:1
"^Allegro"!8va(! [^f^f']<[gg'][^g^g']/ | [ac'e'a'] [ac'e'a']2 [ac'e'a']- [ac'e'a']>[bb'] [aa']2 | %2
 [gg'][^a^c'][bd'][gg'] [ac'][bd'] [gg']2!8va)! | [Acea] [Acea]2 [Acea]- [Acea]>[Bb] [Aa]2 | %4
 [Gg][^F^f][Gg][Aa] [^A^a][Bb][cc'][^c^c'] ||!mf! [dbd']>B[gb]>^f [gb]>A[=fa]>e | %6
 [fa]>G[dg]>^f [dg]>[B^da]-[Bda]>g | [cea]2 [cea]>g [cea][cec']-[cec']A | [ega]cA[ega] cA[cea]>^g | %9
 [Bfa]2 [Bfa]>e [Bfa][dbd']-[dbd']>A | [efa]dA[efa] dA [^da]2 | %11
 [cea]>g[cea]>g [cea][cec']-[cec']>_e | [_Gce]>^d[^Fce]>[=FB=d]- [FBd]>[Bb][cc']>[^c^c'] | %13
 [dbd']>B[gb]>^f [gb]>A[=fa]>e | [fa]>G[dg]>^f [dg]>[B^da]-[Bda]>g | %15
 [cea]2 [cea]>g [cea][cec']-[cec']A | [ega]cA[ega] c>[^G^g][Aa]>[^A^a] | %17
!f! !>![Begb]2- [Begb]>(^D E>^FG>_A | B>^de>^f g>^a b2) | [cea]>b[cea]>b [B^dg]2 [Ad^f]2 | %20
 [GBe]>A[ea]>^A [Bg]>d[bd']>^c' | [dbd']>B[gb]>^f [gb]>A[=fa]>e | %22
 [fa]>G[dg]>^f [dg]>[B^da]-[Bda]>g | [cea]2 [cea]>g [cea][cec']-[cec']A | [ega]cA[ega] cA[cea]>^g | %25
 [Bfa]2 [Bfa]>e [Bfa][dbd']-[dbd']>A | [efa]dA[efa] dA [^da]2 | %27
 [cea]>g[cea]>g [cea][cec']-[cec']>^d | [^Fce]>^d[Fce]>[=FB=d]- [FBd]>[^c^c'][dd']>[^d^d'] | %29
 [e_be']2 [dbd']>a [dbd']>_B[gb]>^f | [_Bg_b] [Geg]2 [Geg]- [Geg]>e[^ge']>c' | %31
 [ee']>d[ad']>^g [dad']>c[c'e']>f | [cc'] [_Acf_a]2 [Acfa]- [Acfa]>[Ee][Ff]>[^F^f] | %33
 [Gg][Aa][Bb][cac']- [cac']>[dd'] [ec'e']2 | [c^fa] [cfb]2 [B=fa]- [Bfa]>[Bfg]-[Bfg]>[c-e-g-c'] | %35
 [cegc']!8va(![c'g'] [c'a']2 [gc'][ad']-[ad'][cg] | [ea][^db]-[db]>g [cec']2 [e^gc'e']2!8va)! |: %37
 z3/2 e<[ae']e/ [_ae']>d'c'>d | [^d^f]>[eg]-[eg]>[cfb]- [cfb]>a[cg]>f | %39
 [B=fa]2 [B,FA]>D [B,FA]>g[B^da]>g | [cea]2 [EA]>G [EA]>G [EA]2 | z3/2 e<[ae']e/ [_ae']>d'c'>d | %42
 [^d^f]>[eg]G>[cea]- [cea]>g[cea]>^a | [gb]>d[bd']>[^d^d'] [ee']>=d' [dgb]2 | %44
 [^cg^a]>b[=c^fa]>b [Bdg]>e [e^gc'e']2 | z3/2 e<[ae']e/ [_ae']>d'c'>d | %46
 [^d^f]>[eg]-[eg][cfb]- [cfb]>a[cg]>f | [B=fa]2 [B,FA]>D [B,FA]>g[B^da]>g | %48
 [cea]2 [EA]>G [EA]>G [EA]2 | [cf^g]>[cfa]-[cfa]>[e_ae']- [eae']>[dd'] [cc']2 | %50
 [Gc^d]>[Gce]-[Gce]>[^cgb]- [cgb]>a [cg]2 | [d^fc']ba[d=fb]- [dfb]>a [dfg]2 |1 %52
 [cegc']2 [c'e']>e [be']>e [_be']2 :|2 [cec']>[B^da]-[Bda]>g [cec']2 z2 || %54
[K:F][I:staff +1] E,>DC>G,[I:staff -1] [EA]>GE>[Bd] | c>G[ea]>g e>[bd']c'>g | %56
!8va(! [ebe'][ebe']- [ebe']2- [ebe']>[_e_e'][dd']>[_d_d'] | %57
 [cc']2 [ebd']>c' [ebd']>c'[_ea=d']>c' |: [=ebd']2 [Be]>^d e>f^f>g | %59
 [ea]>[eg]-[eg]>[ebc']- [ebc']>d[^gd']>c' | [fad']2 [Acf]>e f>^fg>^g | %61
 a>c'e>[^fc'e']- [fc'e']>d [fad']2 | [d=fa]>[f=bf']-[fbf']>[fbf']- [fbf']>a [df]2 | %63
 [c^g]>[egc'e']-[egc'e']>[egc'e']- [egc'e']>c' [ceg]2 | [fa][f'c''] [a'd'']2 [c'f'] [d'g']2 [fc'] | %65
 [ad']2 [cf][dg]- [dg]>[_ead']-[ead']>c' | [=ebd']2 [Be]>^d e>f^f>g | %67
 [ea]>[eg]-[eg]>[ebc']- [ebc']>d[^gd']>c' | [fad']2 [Acf]>e f>^fg>^g | %69
 a>c'f>[ae']- [ae']>d'[fac']>d' | [=be'](^de[be']) (de[ae'])(d | e[_be'])(^de [=be'])d'[d^gc']b | %72
 [cea]>e' (3^g'a'c' (3^d'e'a (3=bc'e!8va)! | (3^gac (3deA c2 [_ead']>c' | %74
!8va(! [=ebd']2 [Be]>^d e>f^f>g | [ea]>[eg]-[eg]>[ebc']- [ebc']>d[^gd']>c' | %76
 [fad']2 [Acf]>e f>^fg>^g | a>c'e>[^fc'e']- [fc'e']>d [fad']2 | %78
 [d=fa]>[f=bf']-[fbf']>[fbf']- [fbf']>a [df]2 | %79
 [c^g]>[egc'e']-[egc'e']>[egc'e']- [egc'e']>c' [ceg]2 | [fa][f'c''] [a'd'']2 [c'f'] [d'g']2 [fc'] | %81
 [ad']2 [cf][dg]- [dg]>c'[ebd']>c' | [faf']2 [Acf]>e f>^fg>^g | %83
 a>[_eac']-[eac']>[faf']- [faf']>d[^c'f']>e' | [fbd'f']2 [df]>e f>^fg>a | %85
 b>d'f>[f^gf']- [fgf']>e' [fgd']2 | [fac']!8va)! z [CG]>F C>[FB]A>F | [Ad]>cA>[cg] f>c[ac']>^c' | %88
 [f=bd']>[fbd']-[fbd']>[e_bd']- [ebd']>=b [ec']2 |1 %89
 [faf']2!8va(! [_ead']>c' [ead']>c'[ead']>c'!8va)! :|2 %90
 [faf']>!8va(!!8va(!c'[ebd']>c' [faf']>[^f^f'][gg']>[_a_a']!8va)! || %91
[K:C] [Acea] [Acea]2 [Acea]- [Acea]>[Bb] [Aa]2 | [Gg][^A^c][Bd][Gg] [Ac][Bd] [Gg]2!8va)! | %93
 [Acea] [Acea]2 [Acea]- [Acea]>[Bb] [Aa]2 | [Gg][^F^f][Gg][Aa] [^A^a][Bb][cc'][^c^c'] || %95
 [dbd']>B[gb]>^f [gb]>A[=fa]>e | [fa]>G[dg]>^f [dg][B-^da-][Bda]>g | %97
 [cea]2 [cea]>g [cea][cec']-[cec']>A | [ega]cA[ega] cA[cea]>^g | %99
 [Bfa]2 [Bfa]>e [Bfa][dbd']-[dbd']>A | [efa]dA[efa] dA [^da]2 | %101
 [cea]>g[cea]>g [cea][cec']-[cec']>_e | [_Gce]>^d[^Fce]>[=FB=d]- [FBd]>[Bb][cc']>[^c^c'] | %103
 [dbd']>B[gb]>^f [gb]>A[=fa]>e | [fa]>G[dg]>^f [dg]>[B^da]-[Bda]>g | %105
 [cea]2 [cea]>g [cea][cec']-[cec']A | [ega]cA[ega] c>[^G^g][Aa]>[^A^a] | %107
!f! !>![Begb]2- [Begb]>(^D E>^FG>_A | B>^de>^f g>^a b2) | [cea]>b[cea]>b [B^dg]2 [Ad^f]2 | %110
 [GBe]>A[ea]>^A [Bg]>d[bd']>^c' | [dbd']>B[gb]>^f [gb]>A[=fa]>e | %112
 [fa]>G[dg]>^f [dg]>[B^da]-[Bda]>g | [cea]2 [cea]>g [cea][cec']-[cec']A | [ega]cA[ega] cA[cea]>^g | %115
 [Bfa]2 [Bfa]>e [Bfa][dbd']-[dbd']>A | [efa]dA[efa] dA [^da]2 | %117
 [cea]>g[cea]>g [cea][cec']-[cec']>^d | [^Fce]>^d[Fce]>[=FB=d]- [FBd]>[^c^c'][dd']>[^d^d'] | %119
 [e_be']2 [dbd']>a [dbd']>_B[gb]>^f | [_Bg_b] [Geg]2 [Geg]- [Geg]>e[^ge']>c' | %121
 [ee']>d[ad']>^g [dad']>c[c'e']>f | [cc'] [_Acf_a]2 [Acfa]- [Acfa]>[Ee][Ff]>[^F^f] | %123
 [Gg][Aa][Bb][cac']- [cac']>[dd'] [ec'e']2 | [c^fa] [cfb]2 [B=fa]- [Bfa]>[Bfg]-[Bfg]>[c-e-g-c'] | %125
 [cegc']!8va(![c'g'] [c'a']2 [gc'][ad']-[ad'][cg] | [ea][^db]-[db]>g [cegc']2!8va)! z2 |] %127
V:2
!f! z2 z/ |[K:treble] [EGc] [EGc]2 [EGc]- [EGc]2 [_E_Gc]2 | [DFB]8 | %3
[K:bass] [E,G,C] [E,G,C]2 [E,G,C]- [E,G,C]2 [_E,_G,C]2 | [D,F,B,]8 || %5
 D,2 [F,G,B,]2 G,,2 [F,G,B,]2 | D,2 [F,G,B,]2 G,,2 [F,G,B,]2 | C,2 [G,CE]2 G,,2 [G,CE]2 | %8
 C,3 [G,CE]- [G,CE]2 [E,,E,]2 | [D,,D,]2 [F,G,B,]2 G,,2 [F,G,B,]2 | %10
 D,3 [G,B,F]- [G,B,F]2 [G,B,F]2 | C,2 [G,CE]2 G,,2 [G,CE]2 | D,2 [^F,A,C]2 G,,2 [=F,G,B,]2 | %13
 D,2 [F,G,B,]2 G,,2 [F,G,B,]2 | D,2 [F,G,B,]2 G,,2 [F,G,B,]2 | C,2 [G,CE]2 G,,2 [G,CE]2 | %16
 C,3 [G,CE]- [G,CE]2 [G,CE]2 | !arpeggio![E,,B,,G,]2- [E,,B,,G,]>(^F, G,>^A,B,>^D | %18
[I:staff -1] E>^FG>^A B>^d e2) |[I:staff +1] [^F,,^F,]4 [B,,B,]2 [B,,B,]2 | %20
 [E,E]2 [^C,^C]2 [D,D]2 z2 | D,2 [F,G,B,]2 G,,2 [F,G,B,]2 | D,2 [F,G,B,]2 G,,2 [F,G,B,]2 | %23
 C,2 [G,CE]2 G,,2 [G,CE]2 | C,3 [G,CE]- [G,CE]2 [E,,E,]2 | [D,,D,]2 [F,G,B,]2 G,,2 [F,G,B,]2 | %26
 D,3 [G,B,F]- [G,B,F]2 [G,B,F]2 | C,2 [G,CE]2 G,,2 [G,CE]2 | D,2 [^F,A,C]2 G,,2 [=F,G,B,]2 | %29
 C,2 [_B,CE]2 E,2 [B,CE]2 | G,2 [_B,CE]2 C,2 [B,CE]2 | F,2 [A,CF]2 C,2 [A,CF]2 | %32
 F,2 [_A,CF]2 D,2 [F,A,C]2 | G,,2 [G,CE]2 A,,2 [A,CE]2 | D,2 [^F,A,C]2 G,,2 [G,B,=F]2 | %35
 [C,,C,]3[K:treble] [Ge]- [Ge]2 [Ec]2 |[K:bass] z2 [G,^D]2 [C,C]2 [C,C]2 |: %37
 F,2 [A,C]2 D,2 [F,_A,C]2 | E,2 [G,C]2 _E,2 [^F,A,C]2 | D,2 [G,,D,]2 [G,,D,]2 ([G,^D]2 | %40
 E2) (C2 B,2 _B,2) | [F,,F,]2 [A,CF]2 _A,2 [CF]2 | G,2 [CE]2 C,2 [CE]2 | %43
 D,2 [G,B,D]2 D,2 [G,B,D]2 | [E,E]2 [D,D]2 [G,D]2 [E,^G,C]2 | F,2 [A,C]2 D,2 [F,_A,C]2 | %46
 E,2 [G,C]2 _E,2 [^F,A,C]2 | D,2 [G,,D,]2 [G,,D,]2 ([G,^D]2 | E2) (C2 B,2 _B,2) | %49
 [F,,F,]2 [F,A,C]2 D,2 [F,_A,C]2 | C,2 [G,CE]2 A,,2 [A,^CG]2 | D,2 [^F,A,C]2 G,,2 [G,B,=F]2 |1 %52
 [C,C]2 (C2 B,2 _B,2) :|2 [C,C]2 G,2 !arpeggio![C,G,E]2 z2 ||[K:F] [C,,G,,]6 [C,G,B,]2- | %55
 [C,G,B,]2[K:treble] [CB]2 [CGB]4 | [CGB][CGB]- [CGB]2- [CGB]>[^CGB][DGB]>[_EGB] | %57
 [EGB]2 z2[K:bass] [G,,G,]2 [^F,,^F,]2 |: [G,,G,]2 [B,CE]2 C,2 [B,CE]2 | G,2 [B,CE]2 C,2 [B,CE]2 | %60
 F,2 [A,CF]2 C,2 [A,CF]2 | F,2 [A,CF]2 D,2 [^F,A,C]2 | G,,2 [G,=B,F]2 D,2 [G,B,F]2 | %63
 C,2 [B,CE]2 C,2 [B,CE]2 | [F,,F,]3[K:treble] [ca]- [ca]2 [Af]2- | %65
 [Af] [CA]3 [A,F]2[K:bass] [^F,,^F,]2 | [G,,G,]2 [B,CE]2 C,2 [B,CE]2 | G,2 [B,CE]2 C,2 [B,CE]2 | %68
 F,2 [A,CF]2 C,2 [A,CF]2 | F,2 [A,CF]2 D,2 [A,CF]2 | [^G,=B,E] z [E,,E,]2 z2 [F,,F,]2 | %71
 z2 [^F,,^F,]2 [G,,G,]2 [_A,,_A,]2 | [A,,A,]2[K:treble] [Ae]4 [Ec]2- | %73
 [Ec]2 [CA]2 [A,E]2[K:bass] [^F,,^F,]2 | [G,,G,]2 [B,CE]2 C,2 [B,CE]2 | G,2 [B,CE]2 C,2 [B,CE]2 | %76
 F,2 [A,CF]2 C,2 [A,CF]2 | F,2 [A,CF]2 D,2 [^F,A,C]2 | G,,2 [G,=B,F]2 D,2 [G,B,F]2 | %79
 C,2 [B,CE]2 C,2 [B,CE]2 | [F,,F,]3[K:treble] [ca]- [ca]2 [Af]2- | %81
 [Af] [CA]3 [A,F]2[K:bass] [G,,G,]2 | [F,,F,]2 [F,A,_E]2 C,2 [F,A,E]2 | %83
 F,,2 [F,A,_E]2 F,,2 [F,A,^C]2 | B,,2 [F,B,D]2 F,,2 [F,B,D]2 | B,,2 [F,B,D]2 =B,,2 [F,^G,D]2 | %86
 [C,,C,]8- | [C,,C,]8 | G,,2 [G,=B,F]2 C,2 [_B,CE]2 |1 [F,,F,]2 [^F,,^F,]2 [F,,F,]2 [F,,F,]2 :|2 %90
 [F,,F,]2 [C,B,]2 !arpeggio![F,,C,A,]2 z2 ||[K:C][K:treble] [EGc] [EGc]2 [EGc]- [EGc]2 [_E_Gc]2 | %92
 [DFB]8 |[K:bass] [E,G,C] [E,G,C]2 [E,G,C]- [E,G,C]2 [_E,_G,C]2 | [D,F,B,]8 || %95
!mf! D,2 [F,G,B,]2 G,,2 [F,G,B,]2 | D,2 [F,G,B,]2 G,,2 [F,G,B,]2 | C,2 [G,CE]2 G,,2 [G,CE]2 | %98
 C,3 [G,CE]- [G,CE]2 [E,,E,]2 | [D,,D,]2 [F,G,B,]2 G,,2 [F,G,B,]2 | %100
 D,3 [G,B,F]- [G,B,F]2 [G,B,F]2 | C,2 [G,CE]2 G,,2 [G,CE]2 | D,2 [^F,A,C]2 G,,2 [=F,G,B,]2 | %103
 D,2 [F,G,B,]2 G,,2 [F,G,B,]2 | D,2 [F,G,B,]2 G,,2 [F,G,B,]2 | C,2 [E,G,C]2 G,,2 [E,G,C]2 | %106
 C,3 [G,CE]- [G,CE]2 [G,CE]2 | !arpeggio![E,,B,,G,]2- [E,,B,,G,]>(^F, G,>_B,=B,>_E | %108
[I:staff -1] E>^FG>_B =B>_e =e2) |[I:staff +1] [^F,,^F,]4 [B,,B,]2 [B,,B,]2 | %110
 [E,E]2 [^C,^C]2 [D,D]2 z2 | D,2 [F,G,B,]2 G,,2 [F,G,B,]2 | D,2 [F,G,B,]2 G,,2 [F,G,B,]2 | %113
 C,2 [G,CE]2 G,,2 [G,CE]2 | C,3 [G,CE]- [G,CE]2 [E,,E,]2 | [D,,D,]2 [F,G,B,]2 G,,2 [F,G,B,]2 | %116
 D,3 [G,B,F]- [G,B,F]2 [G,B,F]2 | C,2 [G,CE]2 G,,2 [G,CE]2 | D,2 [^F,A,C]2 G,,2 [G,B,F]2 | %119
 C,2 [_B,CE]2 E,2 [B,CE]2 | G,2 [_B,CE]2 C,2 [B,CE]2 | F,2 [A,CF]2 C,2 [A,CF]2 | %122
 F,2 [^G,CF]2 C,2 [F,G,C]2 | G,,2 [G,CE]2 A,,2 [A,CE]2 | D,2 [^F,A,C]2 G,,2 [G,B,F]2 | %125
 [C,,C,]3[K:treble] [Ge]- [Ge]2 [Ec]2 |[K:bass] z2 [G,^D]2 [C,C]2 z2 |] %127
V:3
 x5/2 |[K:treble] x8 | x8 |[K:bass] x8 | x8 || x8 | x8 | x8 | x8 | x8 | x8 | x8 | x8 | x8 | x8 | %15
 x8 | x8 | x8 | x8 | x8 | x8 | x8 | x8 | x8 | x8 | x8 | x8 | x8 | x8 | x8 | x8 | x8 | x8 | x8 | %34
 x8 | x3[K:treble] x5 |[K:bass] x8 |: x8 | x8 | x8 | G,2 C,6 | x8 | x8 | x8 | x8 | x8 | x8 | x8 | %48
 G,2 C,6 | x8 | x8 | x8 |1 x8 :|2 x8 ||[K:F] x8 | x2[K:treble] x6 | x8 | x4[K:bass] x4 |: x8 | x8 | %60
 x8 | x8 | x8 | x8 | x3[K:treble] x5 | x6[K:bass] x2 | x8 | x8 | x8 | x8 | x8 | x8 | %72
 x2[K:treble] x6 | x6[K:bass] x2 | x8 | x8 | x8 | x8 | x8 | x8 | x3[K:treble] x5 | x6[K:bass] x2 | %82
 x8 | x8 | x8 | x8 | x8 | x8 | x8 |1 x8 :|2 x8 ||[K:C][K:treble] x8 | x8 |[K:bass] x8 | x8 || x8 | %96
 x8 | x8 | x8 | x8 | x8 | x8 | x8 | x8 | x8 | x8 | x8 | x8 | x8 | x8 | x8 | x8 | x8 | x8 | x8 | %115
 x8 | x8 | x8 | x8 | x8 | x8 | x8 | x8 | x8 | x8 | x3[K:treble] x5 |[K:bass] x8 |] %127

